svg/google-cloud.svg

<?xml version="1.0" encoding="UTF-8"?>
<svg xmlns="http://www.w3.org/2000/svg" xmlns:xlink="http://www.w3.org/1999/xlink" width="39.766998" height="32" viewBox="0 0 39.766998 32">
<path fill-rule="nonzero" fill="rgb(91.764706%, 26.27451%, 20.784314%)" fill-opacity="1" d="M 26.445312 8.828125 L 29.902344 5.371094 L 30.132812 3.914062 C 23.835938 -1.8125 13.820312 -1.164062 8.144531 5.269531 C 6.566406 7.054688 5.394531 9.285156 4.773438 11.585938 L 6.007812 11.410156 L 12.921875 10.269531 L 13.457031 9.722656 C 16.53125 6.347656 21.730469 5.890625 25.28125 8.765625 Z M 26.445312 8.828125 "/>
<path fill-rule="nonzero" fill="rgb(25.882353%, 52.156863%, 95.686275%)" fill-opacity="1" d="M 34.828125 11.480469 C 34.035156 8.554688 32.402344 5.925781 30.132812 3.914062 L 25.28125 8.765625 C 27.328125 10.441406 28.496094 12.960938 28.449219 15.605469 L 28.449219 16.46875 C 30.832031 16.46875 32.761719 18.402344 32.765625 20.785156 C 32.765625 23.171875 30.832031 25.054688 28.449219 25.054688 L 19.800781 25.054688 L 18.949219 25.976562 L 18.949219 31.15625 L 19.800781 31.96875 L 28.449219 31.96875 C 34.652344 32.015625 39.71875 27.074219 39.765625 20.875 C 39.792969 17.113281 37.941406 13.589844 34.828125 11.480469 "/>
<path fill-rule="nonzero" fill="rgb(20.392157%, 65.882353%, 32.54902%)" fill-opacity="1" d="M 11.164062 31.96875 L 19.800781 31.96875 L 19.800781 25.054688 L 11.164062 25.054688 C 10.554688 25.054688 9.949219 24.921875 9.394531 24.667969 L 8.167969 25.042969 L 4.6875 28.5 L 4.382812 29.675781 C 6.335938 31.148438 8.71875 31.980469 11.164062 31.96875 "/>
<path fill-rule="nonzero" fill="rgb(98.431373%, 73.72549%, 1.960784%)" fill-opacity="1" d="M 11.164062 9.542969 C 4.960938 9.578125 -0.0351562 14.636719 0 20.839844 C 0.0195312 24.304688 1.636719 27.5625 4.382812 29.675781 L 9.394531 24.667969 C 7.644531 23.878906 6.625 22.027344 6.894531 20.125 C 7.164062 18.222656 8.660156 16.730469 10.558594 16.457031 C 12.460938 16.1875 14.3125 17.203125 15.105469 18.953125 L 20.117188 13.945312 C 17.988281 11.15625 14.671875 9.527344 11.164062 9.542969 "/>
</svg>

<svg role="img" viewBox="0 0 39.767 32" height="32" width="39.767" xmlns="http://www.w3.org/2000/svg"><path d="m26.445 8.828 3.457-3.457.23-1.457C23.837-1.812 13.82-1.164 8.146 5.27c-1.579 1.785-2.75 4.015-3.372 6.316l1.235-.176 6.914-1.14.535-.547c3.074-3.375 8.273-3.832 11.824-.957Zm0 0" fill="rgb(91.764706%, 26.27451%, 20.784314%)"/><path d="M34.828 11.48a15.546 15.546 0 0 0-4.695-7.566L25.28 8.766a8.642 8.642 0 0 1 3.168 6.84v.863a4.32 4.32 0 0 1 4.317 4.316c0 2.387-1.934 4.27-4.317 4.27H19.8l-.852.922v5.18l.852.812h8.648c6.203.047 11.27-4.895 11.317-11.094a11.245 11.245 0 0 0-4.938-9.395" fill="rgb(25.882353%, 52.156863%, 95.686275%)"/><path d="M11.164 31.969h8.637v-6.914h-8.637a4.26 4.26 0 0 1-1.77-.387l-1.226.375-3.48 3.457-.305 1.176c1.953 1.472 4.336 2.304 6.781 2.293" fill="rgb(20.392157%, 65.882353%, 32.54902%)"/><path d="M11.164 9.543C4.961 9.578-.036 14.637 0 20.84a11.22 11.22 0 0 0 4.383 8.836l5.012-5.008a4.316 4.316 0 0 1-2.497-4.543 4.321 4.321 0 0 1 3.66-3.668 4.324 4.324 0 0 1 4.547 2.496l5.012-5.008a11.202 11.202 0 0 0-8.953-4.402" fill="rgb(98.431373%, 73.72549%, 1.960784%)"/></svg>
